!!!OTL: Soldatenliebe.
!!!OTL-incipit: SCHAETZCHEN SAG WAS FEHLT DENN DIR
!!!COM: F. Silcher Ges. v. H. Langer
!!!ARE: Europa, Mitteleuropa, Deutschland, Hessen, Giessen
!!!SCT: F0589
!!!TXL: @@DE
!!!YEM: Copyright 1995, estate of Helmut Schaffrath.
**kern	**text
*ICvox	*
*M4/4	*
*met(c)	*
*k[f#]	*
*G:	*
=1	=1
!LO:TX:a:t=Leicht hin gesungen.	!
!LO:TX:a:t=Volkslied aus der Gegend von Gießen.	!
{4g	Schätʒchen,
4g	.
4f#	.
4g	ſag,
=2	=2
8aL	was
8gJ	fehlt
8f#L	.
8eJ	dann
2d}	.
=3	=3
{2b/	dir,
4a	weil
4b/	du
=4	=4
4cc/	nicht
4b/	red'ſt
4a;}	mit
{8g	mir?
8g	Gelt
=5	=5
4a	du
8a	haſt
8a	ei-
4a	-nen
8gL	An-
8f#J	-dem
=6	=6
4g	.
4dd/	an
4b/	der
4g}	Sei-
=7	=7
{4a	-te,
4a	der
4a	dir
8gL	thut
8f#J	die
=8	=8
4g	.
4dd/	Ʒeit
4b/	ver-
4g}	-trei-
=9	=9
{(4cc/	-be,
4ee/)	der
4.dd/	.
8b/	dir
=10	=10
8b/L	viel
8aJ	lie-
4a	.
(8gL	-ber
8bJ	iſt?
4dd/)}	.
=11	=11
{(4cc/	.
4ee/)	der
4.dd/	.
8b/	dir
=12	=12
8b/L	viel
8aJ	lie-
4a	.
4g	-ber
4r}	iſt?
==	==
!!!AGN: Soldaten - Lied, Liebe
!!!ONB: ESAC (Essen Associative Code) Database: FINK
!!!AMT: simple quadruple
!!!AIN: vox
!!!EED: Helmut Schaffrath
!!!EEV: 1.0
!!!GTL: Soldaten- und Jaegerlieder
!!Text: Volkslied
!!!source: Musikalischer Hausschatz der Deutschen. Eine Sammlung von über 1000 Liedern und Gesängen mit Singstimmen und Klavierbegleitung. Leipzig, Litterarisches Verlags-Haus.
!!!page: 383
!!!ENC: Anna Maria Matuszewska
!!!EEV: 2025/03/18
*-	*-
